Newaita-dark/.DP/22/nm-vpn-lock.svg

<svg xmlns="http://www.w3.org/2000/svg" xmlns:xlink="http://www.w3.org/1999/xlink" width="22px" height="22px" viewBox="0 0 22 22" version="1.1">
<g id="surface1">
<path style=" stroke:none;fill-rule:nonzero;fill:rgb(100%,43.921569%,26.274511%);fill-opacity:1;" d="M 16.148438 12.945312 C 15.644531 12.945312 15.238281 13.347656 15.238281 13.855469 L 15.238281 16.582031 C 14.734375 16.582031 14.328125 16.988281 14.328125 17.492188 L 14.328125 19.3125 C 14.328125 19.8125 14.734375 20.21875 15.238281 20.21875 L 19.332031 20.21875 C 19.835938 20.21875 20.242188 19.8125 20.242188 19.3125 L 20.242188 17.492188 C 20.242188 16.988281 19.835938 16.582031 19.332031 16.582031 L 19.332031 13.855469 C 19.332031 13.347656 18.925781 12.945312 18.421875 12.945312 Z M 16.605469 13.855469 L 17.96875 13.855469 C 18.21875 13.855469 18.421875 14.054688 18.421875 14.308594 L 18.421875 16.582031 L 16.148438 16.582031 L 16.148438 14.308594 C 16.148438 14.054688 16.351562 13.855469 16.605469 13.855469 Z M 17.285156 17.492188 C 17.664062 17.492188 17.96875 17.796875 17.96875 18.175781 C 17.96875 18.472656 17.777344 18.726562 17.511719 18.820312 C 17.511719 18.832031 17.511719 18.84375 17.511719 18.855469 L 17.511719 19.539062 C 17.511719 19.664062 17.410156 19.765625 17.285156 19.765625 C 17.160156 19.765625 17.058594 19.664062 17.058594 19.539062 L 17.058594 18.855469 C 17.058594 18.84375 17.058594 18.832031 17.058594 18.820312 C 16.792969 18.726562 16.605469 18.472656 16.605469 18.175781 C 16.605469 17.796875 16.90625 17.492188 17.285156 17.492188 Z M 17.285156 17.492188 "/>
</g>
</svg>

<svg xmlns="http://www.w3.org/2000/svg" width="22pt" height="22pt" viewBox="0 0 22 22"><path d="M16.148 12.945a.905.905 0 0 0-.91.907v2.73a.909.909 0 0 0-.91.91v1.82c0 .504.406.907.91.907h4.094c.504 0 .91-.403.91-.907v-1.82a.909.909 0 0 0-.91-.91v-2.73a.905.905 0 0 0-.91-.907zm.454.907h1.367c.25 0 .453.203.453.457v2.273h-2.274v-2.273c0-.254.204-.457.454-.457zm.683 3.64a.682.682 0 0 1 .223 1.328.108.108 0 0 1 .004.035v.684a.227.227 0 0 1-.453 0v-.684c0-.011 0-.023.003-.035a.684.684 0 0 1 .223-1.328zm0 0" fill="#ff7043"/></svg>
